X:180
T: Five Crossroads
M: 4/4
L: 1/8
S: B.Flaherty
Z: B.Black
R: reel
K: G
ge|d2 Bd efge|dcBG AGEG|d2 Bd ef g2|agef g2-ge|
d2 Bd efge|dcBG AGEG|d2 Bd ef g2|agef g2 ge ||
dg g2 fgag|bgef gfge|dg g2 fgag|bgef g2-ge|
dg g2 fgag|bgef gfge|dg g2 fgag|bgef g2-ge||
